build/images/fb-icons/yes-no.svg

<svg xmlns="http://www.w3.org/2000/svg" preserveAspectRatio="xMidYMid" width="15" height="14" viewBox="0 0 15 14"><defs><style>.cls-1{fill:#606060;fill-rule:evenodd}</style></defs><path d="M12.184 10.147l2.067 2.076-1.208 1.205-2.065-2.076-2.074 2.072-1.207-1.205 2.078-2.074L8.198 8.56l1.208-1.204 1.576 1.584 2.349-2.345 1.204 1.204-2.351 2.348zM.013 7.15l1.794-1.948 1.642 1.781L9.321.609l1.794 1.948-7.666 8.323L.013 7.15z" class="cls-1"/></svg>

<svg xmlns="http://www.w3.org/2000/svg" xmlns:xlink="http://www.w3.org/1999/xlink" preserveAspectRatio="xMidYMid" width="15" height="14" viewBox="0 0 15 14">
  <defs>
    <style>
      .cls-1 {
        fill: #606060;
        fill-rule: evenodd;
      }
    </style>
  </defs>
  <path d="M12.184,10.147 L14.251,12.223 L13.043,13.428 L10.978,11.352 L8.904,13.424 L7.697,12.219 L9.775,10.145 L8.198,8.560 L9.406,7.356 L10.982,8.940 L13.331,6.595 L14.535,7.799 L12.184,10.147 ZM0.013,7.150 L1.807,5.202 L3.449,6.983 L9.321,0.609 L11.115,2.557 L3.449,10.880 L0.013,7.150 Z" class="cls-1"/>
</svg>
